packages/ui/assets/svg/partner_kcc.svg

<svg class="partner-size" width="100" height="33" viewBox="0 0 100 33" fill="none" xmlns="http://www.w3.org/2000/svg">
<g id="partner_kcc" clip-path="url(#clip0_205_89)">
<g id="g914">
<path id="Layer" d="M35.275 18.9287L34.275 20.5856L28.8 29.6862H28.775L28.6 30.0077H26.6L18.825 16.4804L26.725 3.02736H28.725L28.775 3.10155L35.3 14.1558H31.275L27.8 8.04754L22.85 16.5052L27.7 24.9628L31.225 18.9534L35.275 18.9287Z" fill="#41E6AF"></path>
<path id="path892" d="M4.85 21.1296L8.5 27.2874L7.275 29.2411L6.425 30.6259L0.175 19.72L0 19.4233L1 17.6922H16.725L24.65 31.1205L23.55 33L12.55 32.9753H12.375L10.625 33L11.55 31.2689L12.475 29.5378L19.675 29.5625L14.725 21.1296H4.85Z" fill="#41E6AF"></path>
<path id="path894" d="M12.625 28.2518C12.35 28.2518 12.05 28.2024 11.75 28.1035C11.425 28.0045 11.1 27.8562 10.8 27.683C9.94999 27.1637 9.34999 26.4218 9.24999 25.7294C9.19999 25.4079 9.27499 25.1359 9.44999 24.938C9.47499 24.8886 9.52499 24.8638 9.54999 24.8144C9.57499 24.7896 9.59999 24.7896 9.62499 24.7649C9.64999 24.7402 9.64999 24.7402 9.67499 24.7155C9.72499 24.6907 9.74999 24.666 9.79999 24.6413C10.325 24.394 11.15 24.4434 11.95 24.8144L11.975 24.8391C12.05 24.8638 12.125 24.9133 12.2 24.938C12.275 24.9628 12.325 25.0122 12.4 25.0617C12.475 25.1111 12.55 25.1606 12.625 25.2101C12.7 25.2595 12.75 25.309 12.825 25.3584L12.875 25.3832C12.925 25.4326 12.975 25.4574 13.025 25.5068C13.05 25.5315 13.05 25.5315 13.075 25.5563C13.125 25.581 13.15 25.6305 13.175 25.6552C13.2 25.6799 13.225 25.7047 13.25 25.7541C13.275 25.8036 13.325 25.8283 13.35 25.8778C13.375 25.9025 13.375 25.9025 13.4 25.9272C13.425 25.9767 13.475 26.0014 13.5 26.0509L13.55 26.1003C13.575 26.1498 13.6 26.1745 13.625 26.224C13.625 26.224 13.625 26.224 13.625 26.2487L13.65 26.2982C13.7 26.3476 13.725 26.4218 13.75 26.4713C13.775 26.5207 13.8 26.5949 13.825 26.6444L13.85 26.6691C13.85 26.6938 13.875 26.7186 13.875 26.7186C13.875 26.7433 13.875 26.7433 13.9 26.768C13.9 26.8175 13.925 26.8422 13.925 26.8917C13.925 26.9411 13.95 26.9411 13.95 26.9659C13.95 26.9906 13.95 27.0153 13.95 27.0153C13.95 27.0648 13.95 27.0895 13.95 27.1143V27.1637C13.95 27.2132 13.95 27.2379 13.95 27.2874C13.95 27.3121 13.95 27.3121 13.95 27.3368C13.95 27.3616 13.95 27.3863 13.95 27.3863C13.95 27.411 13.95 27.411 13.95 27.4357V27.4605C13.95 27.5099 13.925 27.5347 13.9 27.5841C13.875 27.6336 13.85 27.6583 13.825 27.7078C13.65 28.0787 13.175 28.2518 12.625 28.2518Z" fill="#41E6AF"></path>
<path id="path896" d="M14.45 26.4466C14.45 26.3971 14.425 26.3724 14.4 26.3229C14.4 26.2982 14.4 26.2982 14.375 26.2735C14.35 26.1993 14.325 26.1498 14.275 26.0757C14 25.5563 13.55 25.0617 13 24.666C12.925 24.6166 12.85 24.5671 12.775 24.5177C12.7 24.4682 12.625 24.4187 12.55 24.394H12.525C12.5 24.3693 12.475 24.3693 12.45 24.3446C12.4 24.3198 12.375 24.2951 12.325 24.2704H12.3C12.275 24.2704 12.25 24.2456 12.225 24.2456C12.175 24.2209 12.125 24.1962 12.075 24.1962L12.025 24.1714C12.025 24.1714 12.025 24.1714 12 24.1714C11.975 24.1714 11.95 24.1467 11.925 24.1467C11.875 24.122 11.825 24.122 11.775 24.0973L11.725 24.0725H11.7C11.65 24.0478 11.6 24.0478 11.55 24.0231C11.525 24.0231 11.5 23.9983 11.45 23.9983H11.425C11.375 23.9983 11.325 23.9736 11.3 23.9736C11.275 23.9736 11.225 23.9736 11.2 23.9489H11.175C11.15 23.9489 11.125 23.9489 11.1 23.9241C11.075 23.9241 11.05 23.9241 11.025 23.9241C10.95 23.9241 10.85 23.8994 10.775 23.8994H10.75C10.675 23.8994 10.6 23.8994 10.525 23.8994C10.5 23.8994 10.475 23.8994 10.475 23.8994H10.45C10.4 23.8994 10.35 23.8994 10.3 23.9241C10.275 23.9241 10.25 23.9241 10.225 23.9489C10.175 23.9489 10.125 23.9736 10.075 23.9736C10.05 23.9736 10.025 23.9983 10 23.9983L11.375 21.7974L14.325 21.8221L15.85 24.4929L14.475 26.7186C14.475 26.6939 14.475 26.6692 14.45 26.6444C14.45 26.6197 14.45 26.6197 14.45 26.595C14.45 26.5702 14.425 26.5455 14.425 26.4961C14.45 26.4713 14.45 26.4466 14.45 26.4466Z" fill="#41E6AF"></path>
<path id="path898" d="M30.125 18.4094C30.275 18.1868 30.375 17.9148 30.45 17.5933C30.525 17.2718 30.575 16.9256 30.575 16.5794C30.575 15.5902 30.25 14.6999 29.7 14.2548C29.45 14.0569 29.175 13.958 28.9 14.0075C28.85 14.0075 28.8 14.0322 28.75 14.0322C28.725 14.0322 28.7 14.0569 28.675 14.0569C28.65 14.0569 28.625 14.0816 28.6 14.0816C28.55 14.1064 28.5 14.1311 28.475 14.1558C27.975 14.4773 27.6 15.1945 27.5 16.06V16.0848C27.5 16.159 27.475 16.2331 27.475 16.3321C27.475 16.4063 27.475 16.4804 27.475 16.5546C27.475 16.6536 27.475 16.7277 27.475 16.8267C27.475 16.9009 27.475 16.975 27.5 17.0492V17.0987C27.5 17.1482 27.525 17.2223 27.525 17.2718C27.525 17.2965 27.525 17.3213 27.525 17.346C27.525 17.3955 27.55 17.4449 27.55 17.4944C27.55 17.5438 27.575 17.5686 27.575 17.618C27.6 17.6675 27.6 17.7169 27.625 17.7664C27.625 17.7911 27.65 17.8159 27.65 17.8406C27.675 17.8901 27.675 17.9395 27.7 17.989L27.725 18.0632C27.75 18.1126 27.775 18.1374 27.775 18.1868C27.775 18.1868 27.775 18.1868 27.775 18.2115L27.8 18.261C27.825 18.3352 27.875 18.3846 27.9 18.4341C27.925 18.4836 27.975 18.533 28 18.5825L28.025 18.6072C28.05 18.6319 28.05 18.6319 28.075 18.6567C28.1 18.6814 28.1 18.6814 28.1 18.7061C28.125 18.7309 28.15 18.7556 28.175 18.7803C28.2 18.8051 28.225 18.8298 28.225 18.8298C28.25 18.8545 28.25 18.8545 28.275 18.8792C28.3 18.904 28.325 18.9287 28.35 18.9534L28.4 18.9782C28.425 19.0029 28.475 19.0276 28.5 19.0524C28.525 19.0524 28.525 19.0524 28.55 19.0771C28.575 19.0771 28.6 19.1018 28.6 19.1018C28.6 19.1018 28.625 19.1018 28.625 19.1265H28.65C28.7 19.1265 28.725 19.1513 28.775 19.1513C28.825 19.1513 28.875 19.1513 28.925 19.1513C29.45 19.176 29.825 18.8792 30.125 18.4094Z" fill="#41E6AF"></path>
<path id="path900" d="M27.6 19.0029C27.575 18.9781 27.55 18.9287 27.525 18.9039C27.525 18.8792 27.5 18.8792 27.5 18.8545C27.45 18.805 27.425 18.7308 27.375 18.6814C27.05 18.1868 26.875 17.5438 26.825 16.8761C26.825 16.7772 26.825 16.703 26.825 16.6041C26.825 16.5299 26.825 16.4309 26.825 16.3568V16.332C26.825 16.3073 26.825 16.2578 26.825 16.2331C26.825 16.1836 26.825 16.1342 26.85 16.0847V16.06C26.85 16.0353 26.85 16.0105 26.85 15.9858C26.85 15.9363 26.875 15.8869 26.875 15.8374V15.788C26.875 15.788 26.875 15.788 26.875 15.7632C26.875 15.7385 26.875 15.7138 26.9 15.689C26.9 15.6396 26.925 15.5901 26.925 15.5407L26.95 15.4912V15.4665C26.95 15.417 26.975 15.3676 27 15.3181C27 15.2934 27.025 15.2686 27.025 15.2439V15.2192C27.05 15.1697 27.05 15.145 27.075 15.0955C27.075 15.0708 27.1 15.0461 27.125 14.9966V14.9719C27.125 14.9471 27.15 14.9224 27.15 14.8977C27.175 14.873 27.175 14.8482 27.175 14.8482C27.2 14.774 27.25 14.6998 27.3 14.6257L27.325 14.6009C27.375 14.5267 27.4 14.4773 27.45 14.4278C27.45 14.4031 27.475 14.4031 27.475 14.3784L27.5 14.3536C27.525 14.3042 27.575 14.2794 27.6 14.23C27.625 14.2053 27.625 14.1805 27.65 14.1805C27.7 14.1311 27.725 14.1063 27.75 14.0569C27.775 14.0321 27.8 14.0321 27.8 14.0074H25.175L23.65 16.5051L25.15 19.176H27.775C27.75 19.1512 27.75 19.1512 27.725 19.1265L27.7 19.1018C27.675 19.077 27.65 19.0523 27.6 19.0029C27.6 19.0029 27.625 19.0029 27.6 19.0029Z" fill="#41E6AF"></path>
<path id="path902" d="M12.625 4.78318C12.35 4.78318 12.05 4.83264 11.75 4.93156C11.425 5.03048 11.1 5.17886 10.8 5.35197C9.94999 5.8713 9.34999 6.6132 9.24999 7.30564C9.19999 7.62713 9.27499 7.89915 9.44999 8.09699C9.47499 8.14645 9.52499 8.17118 9.54999 8.22064C9.57499 8.24537 9.59999 8.24537 9.62499 8.2701C9.64999 8.29483 9.64999 8.29483 9.67499 8.31956C9.72499 8.34429 9.74999 8.36902 9.79999 8.39375C10.325 8.64105 11.15 8.59159 11.95 8.22064L11.975 8.19591C12.05 8.17118 12.125 8.12172 12.2 8.09699C12.275 8.07226 12.325 8.0228 12.4 7.97334C12.475 7.92388 12.55 7.87442 12.625 7.82496C12.7 7.7755 12.75 7.72605 12.825 7.67659L12.875 7.65185C12.925 7.60239 12.975 7.57766 13.025 7.5282C13.05 7.50347 13.05 7.50348 13.075 7.47875C13.125 7.45402 13.15 7.40456 13.175 7.37983C13.2 7.3551 13.225 7.33036 13.25 7.28091C13.275 7.23145 13.325 7.20672 13.35 7.15726C13.375 7.13253 13.375 7.13253 13.4 7.1078C13.425 7.05834 13.475 7.03361 13.5 6.98415L13.55 6.93469C13.575 6.88523 13.6 6.8605 13.625 6.81104V6.78631L13.65 6.73685C13.7 6.68739 13.725 6.6132 13.75 6.56374C13.775 6.51428 13.8 6.44009 13.825 6.39063L13.85 6.3659C13.85 6.34117 13.875 6.31644 13.875 6.31644C13.875 6.29171 13.875 6.29171 13.9 6.26698C13.9 6.21752 13.925 6.19279 13.925 6.14333C13.925 6.09387 13.95 6.09387 13.95 6.06914C13.95 6.04441 13.95 6.01968 13.95 6.01968C13.95 5.97022 13.95 5.94549 13.95 5.92076V5.8713C13.95 5.82184 13.95 5.79711 13.95 5.74765C13.95 5.72292 13.95 5.72292 13.95 5.69819C13.95 5.67346 13.95 5.64873 13.95 5.64873C13.95 5.624 13.95 5.624 13.95 5.59927V5.57454C13.95 5.52508 13.925 5.50035 13.9 5.45089C13.875 5.40143 13.85 5.3767 13.825 5.32724C13.65 4.95629 13.175 4.75845 12.625 4.78318Z" fill="#41E6AF"></path>
<path id="path904" d="M14.45 6.58845C14.45 6.63791 14.425 6.66264 14.4 6.7121C14.4 6.73683 14.4 6.73682 14.375 6.76156C14.35 6.83574 14.325 6.88521 14.275 6.9594C14 7.47872 13.55 7.97332 13 8.369C12.925 8.41846 12.85 8.46792 12.775 8.51738C12.7 8.56684 12.625 8.6163 12.55 8.64103H12.525C12.5 8.66576 12.475 8.66576 12.45 8.69049C12.4 8.71522 12.375 8.73995 12.325 8.76468H12.3C12.275 8.76468 12.25 8.78941 12.225 8.78941C12.175 8.81414 12.125 8.83887 12.075 8.83887L12.025 8.8636C12.025 8.8636 12.025 8.8636 12 8.8636C11.975 8.8636 11.95 8.88833 11.925 8.88833C11.875 8.91306 11.825 8.91306 11.775 8.93779L11.725 8.96252H11.7C11.65 8.98725 11.6 8.98725 11.55 9.01198C11.525 9.01198 11.5 9.03671 11.45 9.03671H11.425C11.375 9.03671 11.325 9.06144 11.3 9.06144C11.275 9.06144 11.225 9.06144 11.2 9.08617H11.175C11.15 9.08617 11.125 9.08617 11.1 9.1109C11.075 9.1109 11.05 9.1109 11.025 9.1109C10.95 9.1109 10.85 9.13563 10.775 9.13563H10.75C10.675 9.13563 10.6 9.13563 10.525 9.13563C10.5 9.13563 10.475 9.13563 10.475 9.13563H10.45C10.4 9.13563 10.35 9.13563 10.3 9.1109C10.275 9.1109 10.25 9.1109 10.225 9.08617C10.175 9.08617 10.125 9.06144 10.075 9.06144C10.05 9.06144 10.025 9.03671 10 9.03671L11.375 11.2377L14.325 11.2129L15.85 8.54211L14.475 6.31642C14.475 6.34115 14.475 6.36588 14.45 6.39061C14.45 6.41534 14.45 6.41534 14.45 6.44007C14.45 6.4648 14.425 6.48953 14.425 6.53899C14.45 6.56372 14.45 6.58845 14.45 6.58845Z" fill="#41E6AF"></path>
<path id="path906" d="M19.675 3.47249L12.475 3.49722L11.375 1.44463L10.625 0.0350275L12.55 0.0597591V0.0350275L23.55 0.0102997L24.65 1.88977L16.725 15.3181L1 15.3428L0 13.6117L0.2 13.2903H0.175L6.425 2.4091L8.5 5.74763L4.85 11.8806H14.725L19.675 3.47249Z" fill="#41E6AF"></path>
<path id="path908" d="M68.625 16.5051C68.625 17.4696 68.625 18.2857 68.675 18.9287C68.7 19.5716 68.75 20.091 68.825 20.5114C69.125 22.2672 70.475 23.2811 72.2 23.2811C73.325 23.2811 74.35 22.8607 75 21.921C75.275 21.5006 75.5 21.0307 75.625 20.4866C75.65 20.4372 75.675 20.4125 75.75 20.4125H79.625C79.675 20.4125 79.7 20.4619 79.7 20.5114C79.275 22.8854 78 25.037 75.725 26.0756C74.675 26.5702 73.5 26.8175 72.175 26.8175C69.975 26.8175 68.15 26.0756 66.65 24.5918C65.8 23.751 65.225 22.7123 64.975 21.55C64.75 20.4125 64.625 18.7308 64.625 16.5051C64.625 14.2794 64.75 12.5978 64.975 11.4602C65.2 10.2732 65.8 9.25927 66.65 8.41846C68.15 6.93466 70 6.19276 72.175 6.19276C73.5 6.19276 74.675 6.44006 75.725 6.93466C78 7.99805 79.275 10.1248 79.7 12.4989C79.7 12.5483 79.7 12.5978 79.625 12.5978H75.75C75.675 12.5978 75.65 12.5731 75.625 12.5236C75.475 11.9796 75.275 11.5097 75 11.0893C74.35 10.1495 73.325 9.72914 72.2 9.72914C70.475 9.72914 69.125 10.7678 68.825 12.4989C68.75 12.8946 68.7 13.4386 68.675 14.0816C68.625 14.7246 68.625 15.5407 68.625 16.5051Z" fill="#41E6AF"></path>
<path id="path910" d="M88.925 16.5051C88.925 17.4696 88.925 18.2857 88.975 18.9287C89 19.5716 89.05 20.091 89.125 20.5114C89.425 22.2672 90.775 23.2811 92.5 23.2811C93.625 23.2811 94.65 22.8607 95.3 21.921C95.575 21.5006 95.8 21.0307 95.925 20.4866C95.95 20.4372 95.975 20.4125 96.05 20.4125H99.925C99.975 20.4125 100 20.4619 100 20.5114C99.575 22.8854 98.3 25.037 96.025 26.0756C94.975 26.5702 93.8 26.8175 92.475 26.8175C90.275 26.8175 88.45 26.0756 86.95 24.5918C86.1 23.751 85.525 22.7123 85.275 21.55C85.05 20.4125 84.925 18.7308 84.925 16.5051C84.925 14.2794 85.05 12.5978 85.275 11.4602C85.5 10.2732 86.1 9.25927 86.95 8.41846C88.45 6.93466 90.3 6.19276 92.475 6.19276C93.8 6.19276 94.975 6.44006 96.025 6.93466C98.3 7.99805 99.575 10.1248 100 12.4989C100 12.5483 100 12.5978 99.925 12.5978H96.05C95.975 12.5978 95.95 12.5731 95.925 12.5236C95.775 11.9796 95.575 11.5097 95.3 11.0893C94.65 10.1495 93.625 9.72914 92.5 9.72914C90.775 9.72914 89.425 10.7678 89.125 12.4989C89.05 12.8946 89 13.4386 88.975 14.0816C88.95 14.7246 88.925 15.5407 88.925 16.5051Z" fill="#41E6AF"></path>
<path id="path912" d="M47.625 26.2982C47.625 26.496 47.475 26.6444 47.275 26.6444H43.975C43.775 26.6444 43.625 26.496 43.625 26.2982V6.71211C43.625 6.51427 43.775 6.36589 43.975 6.36589H47.275C47.475 6.36589 47.625 6.51427 47.625 6.71211V12.4494L50.275 15.5901L55.725 6.46481C55.775 6.39062 55.825 6.36589 55.925 6.36589H59.925C60.1 6.36589 60.15 6.48954 60.05 6.63792L52.925 18.5825L59.45 26.3229C59.575 26.4713 59.525 26.6197 59.325 26.6197H54.95C54.875 26.6197 54.85 26.5949 54.825 26.5455L47.65 18.0137V26.2982H47.625Z" fill="#41E6AF"></path>
</g>
</g>
<defs>
<clipPath id="clip0_205_89">
<rect width="100" height="32.9897" fill="white" transform="matrix(1 0 0 -1 0 33)"></rect>
</clipPath>
</defs>
</svg>

<svg class="partner-size" width="100" height="33" viewBox="0 0 100 33" fill="none" xmlns="http://www.w3.org/2000/svg"><g fill="#41E6AF" clip-path="url(#clip0_205_89)"><path d="m35.275 18.929-1 1.657-5.475 9.1h-.025l-.175.322h-2L18.825 16.48l7.9-13.453h2l.05.075L35.3 14.156h-4.025L27.8 8.048l-4.95 8.457 4.85 8.458 3.525-6.01 4.05-.024ZM4.85 21.13l3.65 6.157-1.225 1.954-.85 1.385L.175 19.72 0 19.423l1-1.73h15.725L24.65 31.12 23.55 33l-11-.025h-.175l-1.75.025.925-1.731.925-1.731 7.2.024-4.95-8.432H4.85Z"/><path d="M12.625 28.252c-.275 0-.575-.05-.875-.148a4.629 4.629 0 0 1-.95-.421c-.85-.52-1.45-1.261-1.55-1.954-.05-.321.025-.593.2-.791.025-.05.075-.074.1-.124.025-.024.05-.024.075-.05l.05-.049c.05-.024.075-.049.125-.074.525-.247 1.35-.198 2.15.173l.025.025c.075.025.15.074.225.099.075.025.125.074.2.124l.225.148c.075.05.125.099.2.148l.05.025c.05.05.1.074.15.124l.05.05c.05.024.075.074.1.098.025.025.05.05.075.1.025.049.075.073.1.123l.05.05c.025.049.075.073.1.123l.05.05c.025.049.05.073.075.123v.025l.025.05c.05.049.075.123.1.172.025.05.05.124.075.173l.025.025c0 .025.025.05.025.05 0 .024 0 .024.025.049 0 .05.025.074.025.124s.025.05.025.074v.494c0 .05-.025.075-.05.124-.025.05-.05.074-.075.124-.175.37-.65.544-1.2.544Z"/><path d="M14.45 26.447c0-.05-.025-.075-.05-.124 0-.025 0-.025-.025-.05a.736.736 0 0 0-.1-.197c-.275-.52-.725-1.014-1.275-1.41l-.225-.148a1.014 1.014 0 0 0-.225-.124h-.025c-.025-.025-.05-.025-.075-.05-.05-.024-.075-.049-.125-.074H12.3c-.025 0-.05-.024-.075-.024a.358.358 0 0 0-.15-.05l-.05-.025H12c-.025 0-.05-.024-.075-.024-.05-.025-.1-.025-.15-.05l-.05-.024H11.7c-.05-.025-.1-.025-.15-.05-.025 0-.05-.025-.1-.025h-.025c-.05 0-.1-.024-.125-.024-.025 0-.075 0-.1-.025h-.025c-.025 0-.05 0-.075-.025h-.075c-.075 0-.175-.025-.25-.025h-.325c-.05 0-.1 0-.15.025-.025 0-.05 0-.075.025-.05 0-.1.025-.15.025-.025 0-.05.024-.075.024l1.375-2.2 2.95.024 1.525 2.67-1.375 2.227c0-.025 0-.05-.025-.075v-.049c0-.025-.025-.05-.025-.099.025-.025.025-.05.025-.05ZM30.125 18.41c.15-.223.25-.495.325-.817.075-.321.125-.667.125-1.014 0-.989-.325-1.88-.875-2.324-.25-.198-.525-.297-.8-.248-.05 0-.1.025-.15.025-.025 0-.05.025-.075.025-.025 0-.05.025-.075.025-.05.024-.1.05-.125.074-.5.321-.875 1.038-.975 1.904v.025c0 .074-.025.148-.025.247v.495c0 .074 0 .148.025.222v.05c0 .05.025.123.025.173v.074c0 .05.025.099.025.148 0 .05.025.075.025.124.025.05.025.099.05.148 0 .025.025.05.025.075.025.05.025.098.05.148l.025.074c.025.05.05.074.05.124v.024l.025.05c.025.074.075.124.1.173.025.05.075.099.1.148l.025.025.05.05c.025.024.025.024.025.05a52.191 52.191 0 0 0 .125.123l.05.05.075.073.05.025c.025.025.075.05.1.074.025 0 .025 0 .05.025.025 0 .05.025.05.025s.025 0 .025.024h.025c.05 0 .075.025.125.025h.15c.525.025.9-.272 1.2-.742Z"/><path d="M27.6 19.003c-.025-.025-.05-.074-.075-.1 0-.024-.025-.024-.025-.048-.05-.05-.075-.124-.125-.174-.325-.494-.5-1.137-.55-1.805v-.643c0-.05 0-.099.025-.148v-.099c0-.05.025-.1.025-.149V15.763c0-.024 0-.05.025-.074 0-.05.025-.099.025-.148l.025-.05v-.024c0-.05.025-.1.05-.149 0-.025.025-.05.025-.074v-.025c.025-.05.025-.074.05-.123 0-.025.025-.05.05-.1v-.024c0-.025.025-.05.025-.074.025-.025.025-.05.025-.05a.997.997 0 0 1 .125-.222l.025-.025c.05-.074.075-.124.125-.173 0-.025.025-.025.025-.05l.025-.024c.025-.05.075-.075.1-.124.025-.025.025-.05.05-.05a.435.435 0 0 0 .1-.123c.025-.025.05-.025.05-.05h-2.625l-1.525 2.498 1.5 2.671h2.625l-.05-.05-.025-.024-.1-.1s.025 0 0 0ZM12.625 4.783c-.275 0-.575.05-.875.149-.325.098-.65.247-.95.42-.85.52-1.45 1.261-1.55 1.954-.05.321.025.593.2.791.025.05.075.074.1.124.025.024.05.024.075.05l.05.049c.05.024.075.049.125.074.525.247 1.35.198 2.15-.173l.025-.025c.075-.025.15-.074.225-.099.075-.025.125-.074.2-.124l.225-.148c.075-.05.125-.099.2-.148l.05-.025c.05-.05.1-.074.15-.124l.05-.05c.05-.024.075-.073.1-.098a.342.342 0 0 0 .075-.1c.025-.049.075-.073.1-.123l.05-.05c.025-.049.075-.073.1-.123l.05-.05c.025-.049.05-.074.075-.123v-.025l.025-.05c.05-.049.075-.123.1-.172.025-.05.05-.124.075-.173l.025-.025c0-.025.025-.05.025-.05 0-.024 0-.024.025-.049 0-.05.025-.074.025-.124s.025-.05.025-.074v-.494c0-.05-.025-.075-.05-.124-.025-.05-.05-.074-.075-.124-.175-.37-.65-.569-1.2-.544Z"/><path d="M14.45 6.588c0 .05-.025.075-.05.124 0 .025 0 .025-.025.05a.737.737 0 0 1-.1.197C14 7.48 13.55 7.973 13 8.37l-.225.148c-.075.05-.15.1-.225.124h-.025c-.025.025-.05.025-.075.05-.05.024-.075.049-.125.074H12.3c-.025 0-.05.024-.075.024-.05.025-.1.05-.15.05l-.05.025H12c-.025 0-.05.024-.075.024-.05.025-.1.025-.15.05l-.05.025H11.7c-.05.024-.1.024-.15.049-.025 0-.05.025-.1.025h-.025c-.05 0-.1.024-.125.024-.025 0-.075 0-.1.025h-.025c-.025 0-.05 0-.075.025h-.075c-.075 0-.175.025-.25.025h-.325c-.05 0-.1 0-.15-.025-.025 0-.05 0-.075-.025-.05 0-.1-.025-.15-.025-.025 0-.05-.024-.075-.024l1.375 2.2 2.95-.024 1.525-2.67-1.375-2.227c0 .025 0 .05-.025.075v.05c0 .024-.025.049-.025.098.025.025.025.05.025.05Z"/><path d="m19.675 3.472-7.2.025-1.1-2.052-.75-1.41L12.55.06V.035l11-.025 1.1 1.88-7.925 13.428L1 15.343l-1-1.731.2-.322H.175l6.25-10.88L8.5 5.747 4.85 11.88h9.875l4.95-8.409ZM68.625 16.505c0 .965 0 1.78.05 2.424.025.643.075 1.162.15 1.582.3 1.756 1.65 2.77 3.375 2.77 1.125 0 2.15-.42 2.8-1.36.275-.42.5-.89.625-1.434.025-.05.05-.074.125-.074h3.875c.05 0 .075.049.075.098-.425 2.374-1.7 4.526-3.975 5.565-1.05.494-2.225.741-3.55.741-2.2 0-4.025-.741-5.525-2.225a6.033 6.033 0 0 1-1.675-3.042c-.225-1.137-.35-2.82-.35-5.045 0-2.226.125-3.907.35-5.045.225-1.187.825-2.2 1.675-3.042 1.5-1.483 3.35-2.225 5.525-2.225 1.325 0 2.5.247 3.55.742 2.275 1.063 3.55 3.19 3.975 5.564 0 .05 0 .099-.075.099H75.75c-.075 0-.1-.025-.125-.074A5.002 5.002 0 0 0 75 11.089c-.65-.94-1.675-1.36-2.8-1.36-1.725 0-3.075 1.039-3.375 2.77-.075.396-.125.94-.15 1.583-.05.643-.05 1.459-.05 2.423ZM88.925 16.505c0 .965 0 1.78.05 2.424.025.643.075 1.162.15 1.582.3 1.756 1.65 2.77 3.375 2.77 1.125 0 2.15-.42 2.8-1.36.275-.42.5-.89.625-1.434.025-.05.05-.074.125-.074h3.875c.05 0 .075.049.075.098-.425 2.374-1.7 4.526-3.975 5.565-1.05.494-2.225.741-3.55.741-2.2 0-4.025-.741-5.525-2.225a6.033 6.033 0 0 1-1.675-3.042c-.225-1.137-.35-2.82-.35-5.045 0-2.226.125-3.907.35-5.045.225-1.187.825-2.2 1.675-3.042 1.5-1.483 3.35-2.225 5.525-2.225 1.325 0 2.5.247 3.55.742 2.275 1.063 3.55 3.19 3.975 5.564 0 .05 0 .099-.075.099H96.05c-.075 0-.1-.025-.125-.074a5.002 5.002 0 0 0-.625-1.435c-.65-.94-1.675-1.36-2.8-1.36-1.725 0-3.075 1.039-3.375 2.77-.075.396-.125.94-.15 1.583a61.33 61.33 0 0 0-.05 2.423ZM47.625 26.298a.34.34 0 0 1-.35.346h-3.3a.34.34 0 0 1-.35-.346V6.712a.34.34 0 0 1 .35-.346h3.3c.2 0 .35.148.35.346v5.737l2.65 3.141 5.45-9.125c.05-.074.1-.1.2-.1h4c.175 0 .225.125.125.273l-7.125 11.944 6.525 7.74c.125.15.075.298-.125.298H54.95c-.075 0-.1-.025-.125-.075l-7.175-8.531v8.284h-.025Z"/></g><defs><clipPath id="clip0_205_89"><path fill="#fff" transform="matrix(1 0 0 -1 0 33)" d="M0 0h100v32.99H0z"/></clipPath></defs></svg>
